packages/icons/src/templates-blue.svg

<svg fill="none" viewBox="0 0 64 64" xmlns="http://www.w3.org/2000/svg"><g clip-rule="evenodd" fill="#0278d5" fill-rule="evenodd"><path d="m6.42578 19.743c0-1.7673 1.43268-3.2 3.19998-3.2h9.19604c1.7673 0 3.2 1.4327 3.2 3.2v.2437h3.8257v-.2437c0-1.7673 1.4326-3.2 3.1999-3.2h9.1363c1.7673 0 3.2 1.4327 3.2 3.2v3.4634c0 1.7673-1.4327 3.2-3.2 3.2h-9.1363c-1.7673 0-3.1999-1.4327-3.1999-3.2v-.0197h-3.8257v.243c0 1.7673-1.4327 3.2-3.2 3.2h-3.6691v3.3969c0 .6459.1989 1.244.6014 1.6689.3793.4003 1.1176.8357 2.5873.8357h7.5061v-.7554c0-1.7673 1.4326-3.2 3.1999-3.2h9.1961c1.7673 0 3.1999 1.4327 3.1999 3.2v3.6867c0 1.7673-1.4326 3.2-3.1999 3.2h-9.1961c-1.6768 0-3.0524-1.2897-3.1888-2.9313h-7.5172c-2.1421 0-3.7981-.661-4.9103-1.835-1.0889-1.1494-1.4784-2.6036-1.4784-3.8696v-3.3969h-2.32694c-1.7673 0-3.19998-1.4327-3.19998-3.2zm12.39602 0h-9.19604v3.6867h9.19604zm19.3619 0h-9.1363v3.4634h9.1363zm-9.1363 12.0328h9.1961v3.6867h-9.1961z"/><path d="m46.1068 6.43359c2.6509 0 4.7999 2.14903 4.7999 4.80001v24.1496c0 .8837-.7163 1.6-1.6 1.6-.8836 0-1.5999-.7163-1.5999-1.6v-24.1496c0-.8837-.7164-1.60001-1.6-1.60001h-31.6922c-.8836 0-1.6.71631-1.6 1.60001v.4343c0 .8837-.7163 1.6-1.6 1.6-.8836 0-1.59995-.7163-1.59995-1.6v-.4343c0-2.65098 2.14905-4.80001 4.79995-4.80001zm-6.9613 42.79391c0 .8837-.7163 1.6-1.6 1.6h-23.1309c-2.6509 0-4.79995-2.149-4.79995-4.8v-7.4606c0-.8836.71635-1.6 1.59995-1.6.8837 0 1.6.7164 1.6 1.6v7.4606c0 .8837.7164 1.6 1.6 1.6h23.1309c.8837 0 1.6.7164 1.6 1.6z"/><path d="m49.3068 33.7852c.8836 0 1.5999.7163 1.5999 1.6v4.2443c0 6.1856-5.0143 11.2-11.1999 11.2h-9.4461c-.8837 0-1.6-.7164-1.6-1.6 0-.8837.7163-1.6 1.6-1.6h9.4461c4.4183 0 8-3.5818 8-8v-4.2443c0-.8837.7163-1.6 1.6-1.6z"/><path d="m52.9896 16.332c2.6509 0 4.8 2.1491 4.8 4.8l-.0001 22.2031c0 .8836-.7163 1.6-1.5999 1.6-.8837 0-1.6-.7164-1.6-1.6v-22.2031c0-.8836-.7164-1.6-1.6-1.6h-3.6827c-.8837 0-1.6-.7163-1.6-1.6 0-.8836.7163-1.6 1.6-1.6zm-6.5397 39.8621c0 .8836-.7163 1.6-1.5999 1.6h-22.187c-2.6509 0-4.7999-2.1491-4.7999-4.8v-3.407c0-.8836.7163-1.6 1.5999-1.6.8837 0 1.6.7164 1.6 1.6v3.407c0 .8836.7164 1.6 1.6 1.6h22.187c.8836 0 1.5999.7163 1.5999 1.6z"/><path d="m56.1896 41.7344c.8836 0 1.6.7163 1.6 1.6v3.2589c0 6.1856-5.0144 11.2001-11.2 11.2h-8.7633c-.8836 0-1.6-.7163-1.6-1.6 0-.8836.7164-1.6 1.6-1.6h8.7633c4.4183 0 8-3.5817 8-8v-3.2589c0-.8837.7163-1.6 1.6-1.6z"/></g></svg>

<svg viewBox="0 0 64 64" fill="none" xmlns="http://www.w3.org/2000/svg">
<path fill-rule="evenodd" clip-rule="evenodd" d="M6.42578 19.743C6.42578 17.9757 7.85846 16.543 9.62576 16.543H18.8218C20.5891 16.543 22.0218 17.9757 22.0218 19.743V19.9867H25.8475V19.743C25.8475 17.9757 27.2801 16.543 29.0474 16.543H38.1837C39.951 16.543 41.3837 17.9757 41.3837 19.743V23.2064C41.3837 24.9737 39.951 26.4064 38.1837 26.4064H29.0474C27.2801 26.4064 25.8475 24.9737 25.8475 23.2064V23.1867H22.0218V23.4297C22.0218 25.197 20.5891 26.6297 18.8218 26.6297H15.1527V30.0266C15.1527 30.6725 15.3516 31.2706 15.7541 31.6955C16.1334 32.0958 16.8717 32.5312 18.3414 32.5312H25.8475V31.7758C25.8475 30.0085 27.2801 28.5758 29.0474 28.5758H38.2435C40.0108 28.5758 41.4434 30.0085 41.4434 31.7758V35.4625C41.4434 37.2298 40.0108 38.6625 38.2435 38.6625H29.0474C27.3706 38.6625 25.995 37.3728 25.8586 35.7312H18.3414C16.1993 35.7312 14.5433 35.0702 13.4311 33.8962C12.3422 32.7468 11.9527 31.2926 11.9527 30.0266V26.6297H9.62576C7.85846 26.6297 6.42578 25.197 6.42578 23.4297V19.743ZM18.8218 19.743H9.62576V23.4297H18.8218V19.743ZM38.1837 19.743L29.0474 19.743V23.2064L38.1837 23.2064V19.743ZM29.0474 31.7758H38.2435V35.4625H29.0474V31.7758Z" fill="#0278D5"/>
<path fill-rule="evenodd" clip-rule="evenodd" d="M46.1068 6.43359C48.7577 6.43359 50.9067 8.58262 50.9067 11.2336L50.9067 35.3832C50.9067 36.2669 50.1904 36.9832 49.3067 36.9832C48.4231 36.9832 47.7068 36.2669 47.7068 35.3832L47.7068 11.2336C47.7068 10.3499 46.9904 9.63359 46.1068 9.63359L14.4146 9.63359C13.531 9.63359 12.8146 10.3499 12.8146 11.2336L12.8146 11.6679C12.8146 12.5516 12.0983 13.2679 11.2146 13.2679C10.331 13.2679 9.61465 12.5516 9.61465 11.6679L9.61465 11.2336C9.61465 8.58262 11.7637 6.43359 14.4146 6.43359L46.1068 6.43359ZM39.1455 49.2275C39.1455 50.1112 38.4292 50.8275 37.5455 50.8275L14.4146 50.8275C11.7637 50.8275 9.61465 48.6785 9.61465 46.0275L9.61465 38.5669C9.61465 37.6833 10.331 36.9669 11.2146 36.9669C12.0983 36.9669 12.8146 37.6833 12.8146 38.5669L12.8146 46.0275C12.8146 46.9112 13.531 47.6275 14.4146 47.6275L37.5455 47.6275C38.4292 47.6275 39.1455 48.3439 39.1455 49.2275Z" fill="#0278D5"/>
<path fill-rule="evenodd" clip-rule="evenodd" d="M49.3068 33.7852C50.1904 33.7852 50.9067 34.5015 50.9067 35.3852L50.9067 39.6295C50.9067 45.8151 45.8924 50.8295 39.7068 50.8295L30.2607 50.8295C29.377 50.8295 28.6607 50.1131 28.6607 49.2295C28.6607 48.3458 29.377 47.6295 30.2607 47.6295L39.7068 47.6295C44.1251 47.6295 47.7068 44.0477 47.7068 39.6295L47.7068 35.3852C47.7068 34.5015 48.4231 33.7852 49.3068 33.7852Z" fill="#0278D5"/>
<path fill-rule="evenodd" clip-rule="evenodd" d="M52.9896 16.332C55.6405 16.332 57.7896 18.4811 57.7896 21.132L57.7895 43.3351C57.7895 44.2187 57.0732 44.9351 56.1896 44.9351C55.3059 44.9351 54.5896 44.2187 54.5896 43.3351L54.5896 21.132C54.5896 20.2484 53.8732 19.532 52.9896 19.532L49.3069 19.532C48.4232 19.532 47.7069 18.8157 47.7069 17.932C47.7069 17.0484 48.4232 16.332 49.3069 16.332L52.9896 16.332ZM46.4499 56.1941C46.4499 57.0777 45.7336 57.7941 44.85 57.7941L22.663 57.7941C20.0121 57.7941 17.8631 55.645 17.8631 52.9941L17.8631 49.5871C17.8631 48.7035 18.5794 47.9871 19.463 47.9871C20.3467 47.9871 21.063 48.7035 21.063 49.5871L21.063 52.9941C21.063 53.8777 21.7794 54.5941 22.663 54.5941L44.85 54.5941C45.7336 54.5941 46.4499 55.3104 46.4499 56.1941Z" fill="#0278D5"/>
<path fill-rule="evenodd" clip-rule="evenodd" d="M56.1896 41.7344C57.0732 41.7344 57.7896 42.4507 57.7896 43.3344L57.7896 46.5933C57.7896 52.7789 52.7752 57.7934 46.5896 57.7933L37.8263 57.7933C36.9427 57.7933 36.2263 57.077 36.2263 56.1933C36.2263 55.3097 36.9427 54.5933 37.8263 54.5933L46.5896 54.5933C51.0079 54.5933 54.5896 51.0116 54.5896 46.5933L54.5896 43.3344C54.5896 42.4507 55.3059 41.7344 56.1896 41.7344Z" fill="#0278D5"/>
</svg>
